X: 2527
T: Ballyea
R: jig
M: 6/8
K: Gmixolydian
g2g gfe|d2G GGG|d2d dec|dec d2c|B2B BcB|d2d ded|f2f fed|ced ced:|
B2B cBc|d3 d2c|B2B cBc|dcB G3|B2B cBc|d3 d2e|f2f fed|ced ced:|

